!!!COM: Hugo Wolf
!!!CNT: Deutscher
!!!TXO: Deutsche 
!!!OTL: Sie Haben Wegen Der Trunkenheit
!!!ODT: 1889/01/18
!!!ONM: No. 37
!!!LYR: Johann Wolfgang von Goethe
!!!ENC: Brian Bice
!!!YOR: 45 Songs on Poems of Goethe and Eichendorff, Dover Publications, 1995
!!NB: Vocal melody and text only encoded.
**kern	**silbe
*clefG2	*
*k[b-e-]	*
*M12/8	*
=1	=1
2.r	.
4r	.
8r	.
4r	.
{8cc	{Sie
=2	=2
4cc	ha-
8cc	-ben
8cc	we-
8cc	-gen
8cc	der
4f#	Trun-
8f#	-ken-
4f#	-heit
[8cc	viel-
=3	=3
8cc]	|
8cc	-fa2l-
8cc	-tig
4cc	uns
8cc	ver-
(ccq	-klagt,
4.f#)}	|}
4r	.
{8b-	{und
=4	=4
8b-	ha-
8b-	-ben
8b-	von
4b-	uns-
8b-	-rer
(b-q	Trun-
4en)	|
8en	-ken-
4en	-heit
[8b-	lan-
=5	=5
8b-]	|
8b-	-ge
([8b-	nicht
8b-]	|
8cc)	|
8dd	ge-
4cc#	-nug
8een	ge-
4.a}	-sagt.}
=6	=6
*M6/8	*
4r	.
8r	.
4r	.
{8c#	{Ge-
=7	=7
*M12/8	*
4d	-wo2hn-
8en	-lich
4f	der
8g	Be-
4g#	-trun-
8a	-ken-
4a	-heit
8cc	er-
=8	=8
4b-	-liegt
8a	man,
4f#	bis
8e-	es
4.dd}	tagt;}
4r	.
{[8d	{doch
=9	=9
8d]	|
8d	hat
8d	mich
8d	mei-
8d	-ne
8en	Be-
4f	-trun-
8a	-ken-
8a	-heit
8a	in
8bn	der
=10	=10
4cc	Nacht
8f	um-
4d#	-her-
8bn	-ge-
[4.bn	-jagt.
8bn]}	|}
8r	.
8r	.
=11	=11
{8bn	{Es
8bn	ist
8bn	die
4dd	Lie-
8dd	-bes-
4dd	-trun-
8en	-ken-
4en	-heit,
[8bn	die
=12	=12
8bn]	|
8bn	mich
8bn	er-
4cc	-ba2rm-
8ee-	-lich
(ee-q	plagt,
[4.g#)	|
8g#]}	|}
8r	.
{8en	{von
=13	=13
4en	Tag
8a	zu
4a	Nacht,
8en	von
4f	Nacht
8b-	zu
4b-	Tag
8a	in
=14	=14
4a	mei-
8cc	-nem
4bn	Her-
8a	-zen
(4.f	zagt.
8en)}	|}
8r	.
8r	.
=15	=15
2.r	.
4r	.
8r	.
4r	.
{8a	{Dem
=16	=16
4b-	Her-
8b-	-zen,
4b-	das
8b-	in
4b-	Trun-
8b-	-ken-
4b-	-heit
8b-	der
=17	=17
4b-	Lie-
8dd	-der
4cc#	schwillt
8dd	und
(8dd#	ragt,
[4een)	|
8een]}	|}
8r	.
{8a	{dass
=18	=18
4a	kei-
8dd	-ne
8ff	nu2ch-
8een	-ter-
8dd	-ne
4cc	Trun-
8b-	-ken-
4a	-heit
8cc#	sich
=19	=19
4dd	gleich
8een	zu
4en	he-
8g#	-ben
[4.a	wagt.
8a]}	|}
8r	.
8r	.
=20	=20
{4ccn	{Lieb',
8r	.
4ccn	Lied
8ccn	und
4ccn	Wei-
8b-	-nes
8a	Trun-
8g	-ken-
8f#	-heit,
=21	=21
4r	.
8g	ob's
4g	nach-
8a	-tet
4bn	o-
8cc	-der
(8cc#	tagt,
16dd)	|
16r	.
8g	die
=22	=22
4ee-	go2tt-
8ee-	-lich-
4ee-	-ste
8ee-	Be-
4ee-	-trun-
8ff	-ken-
8ee-	-heit,
8cc	|
8ee-	die
=23	=23
4f#	mich
8b-	ent-
4b-	zu2ckt
8a	und
(aq	plagt,
[4.g)	|
4g]}	|}
8r	.
*-	*-
